Yaru++/actions/16/draw-triangle2.svg

<svg viewBox="0 0 24 24" xmlns="http://www.w3.org/2000/svg">
  <path d="m5 4v1 13.84375 1.15625l1-.572266 13-7.427734-13-7.4277344zm1 1.5839844 10.976562 6.4160156-10.976562 6.271484z" fill="#808080"/>
</svg>

<svg xmlns="http://www.w3.org/2000/svg" viewBox="0 0 24 24">
 <defs>
  <style id="current-color-scheme" type="text/css">
   .ColorScheme-Text { color:#808080; }
  </style>
 </defs>
 <path fill="#808080" class="ColorScheme-Text" d="M 5 4 L 5 5 L 5 18.84375 L 5 20 L 6 19.427734 L 19 12 L 6 4.5722656 L 5 4 z M 6 5.5839844 L 16.976562 12 L 6 18.271484 L 6 5.5839844 z"/>
</svg>
